X: 39973
T: Three Around Three
R: barndance
M: 4/4
K: Gmajor
B2 c2 ^c2|:d2 BA G2 GG|A2 BA G2 D2|EDEF G2 cc|c2 BB B2 A2|
d2 BA G4|A2 BA G2 F2|EDEF G2 c2|1 B2 A2 G-[GB][ce-][^ce]:|2 B2 A/B/A G2- [G2e2]||
|:d2 d2 gfed|e2 e2 efge|d2 B2 BA G2|FGAB A4|
d4 gfed|e2 ee e2 dd|ef g2 fgaf|g4- g4:|

